!!!ONB: MCCC : IJB0063_07 : Extracted Monophonic Melody
!!!COM: Bach, Johann Sebastian
!!!OPR: Cello Suite No.1
!!!OMV: 7
!!!SCT: BWV 1007
!!!ODT: 1717///
**kern
*thru
*staff1
*IVioloncello
*clefF4
*k[f#]
*G:
*M6/8
*>A
8D
=1
8G
8D
8E
8E
8C
8D
=2
8D
8G
8D
8BB
8GG
8D
=3
16G
16A
8B
8A
16A
16B
8c
8B
=4
4.B
4A
8A
=5
8B
8F#
8G
8G
8E
8G
=6
8A
8E
8F#
8F#
8D
8F#
=7
8G
8B
8G
8E
8BB
8D
=8
8C#
8E
8A
4AA
8E
=9
8F
8E
8G
8G
8F
8A
=10
8A
8G
8B-
8B-
8A
8G
=11
8F
8E
8D
8AA
8D
8C#
=12
8D
8AA
8FF#
4DD
*>A
8D
=1
8G
8D
8E
8E
8C
8D
=2
8D
8G
8D
8BB
8GG
8D
=3
16G
16A
8B
8A
16A
16B
8c
8B
=4
4.B
4A
8A
=5
8B
8F#
8G
8G
8E
8G
=6
8A
8E
8F#
8F#
8D
8F#
=7
8G
8B
8G
8E
8BB
8D
=8
8C#
8E
8A
4AA
8E
=9
8F
8E
8G
8G
8F
8A
=10
8A
8G
8B-
8B-
8A
8G
=11
8F
8E
8D
8AA
8D
8C#
=12
8D
8AA
8FF#
4DD
*>B
8A
=13
8A
8F#
8G
8G
8E
8F#
=14
16F#
16G
8A
8F#
8D
8c
8B
=15
8B
8G
8A
8A
8F#
8G
=16
16G
16A
8B
8G
8E
8d
8c
=17
8A
8d
8c
8D
8c
8B
=18
8G
8c
8B
8C
8B
8A
=19
8G
8F#
8E
8BB
8E
8D#
=20
8E
8BB
8GG
4EE
8G
=21
8A
8F#
8G
16c#
16d
8e
8F#
=22
8G
8E
8F
16B
16c
8d
8E
=23
8F
8D
8E
16A
16B
8c
8A
=24
16F#
16G
8A
8F#
4D
8A
=25
8B-
8A
8c
8c
8B-
8d
=26
8d
8c
8e-
8e-
8d
8c
=27
8B-
8A
8G
8D
8G
8F#
=28
8G
16BB
16C
8D
8GG
8BB
8D
=29
8G
16E
16F
8G
8BB
8C
8E
=30
8A
16F#
16G
8A
8C#
8D
8F#
=31
8B
16G
16A
8B
8D#
8E
8c
=32
8E
8F#
8d
8F#
8G
8e
=33
8D
16E
16F#
16G
16A
8B
8G
8F#
=34
8G
8D
8BB
4GG
==
*>B
8A
=13
8A
8F#
8G
8G
8E
8F#
=14
16F#
16G
8A
8F#
8D
8c
8B
=15
8B
8G
8A
8A
8F#
8G
=16
16G
16A
8B
8G
8E
8d
8c
=17
8A
8d
8c
8D
8c
8B
=18
8G
8c
8B
8C
8B
8A
=19
8G
8F#
8E
8BB
8E
8D#
=20
8E
8BB
8GG
4EE
8G
=21
8A
8F#
8G
16c#
16d
8e
8F#
=22
8G
8E
8F
16B
16c
8d
8E
=23
8F
8D
8E
16A
16B
8c
8A
=24
16F#
16G
8A
8F#
4D
8A
=25
8B-
8A
8c
8c
8B-
8d
=26
8d
8c
8e-
8e-
8d
8c
=27
8B-
8A
8G
8D
8G
8F#
=28
8G
16BB
16C
8D
8GG
8BB
8D
=29
8G
16E
16F
8G
8BB
8C
8E
=30
8A
16F#
16G
8A
8C#
8D
8F#
=31
8B
16G
16A
8B
8D#
8E
8c
=32
8E
8F#
8d
8F#
8G
8e
=33
8D
16E
16F#
16G
16A
8B
8G
8F#
=34
8G
8D
8BB
4GG
==
*-
